assets/icons/qvision/picture_in_picture.svg

<svg xmlns="http://www.w3.org/2000/svg" height="24" viewBox="0 0 24 24" width="24"><path d="M0 0h24v24H0z" fill="none"/><path d="M19 7h-8v6h8V7zm2-4H3c-1.1 0-2 .9-2 2v14c0 1.1.9 1.98 2 1.98h18c1.1 0 2-.88 2-1.98V5c0-1.1-.9-2-2-2zm0 16.01H3V4.98h18v14.03z"/></svg>

<svg width="24" height="24" viewBox="0 0 24 24" fill="none" xmlns="http://www.w3.org/2000/svg">
<g clip-path="url(#clip0_147_4555)">
<path d="M19 7H11V13H19V7ZM21 3H3C1.9 3 1 3.9 1 5V19C1 20.1 1.9 20.98 3 20.98H21C22.1 20.98 23 20.1 23 19V5C23 3.9 22.1 3 21 3ZM21 19.01H3V4.98H21V19.01Z" fill="#323232"/>
</g>
<defs>
<clipPath id="clip0_147_4555">
<rect width="24" height="24" fill="white"/>
</clipPath>
</defs>
</svg>
